images/mask.svg

<svg height="250" viewBox="0 0 250 250" width="250" xmlns="http://www.w3.org/2000/svg"><path d="m125.273438 250c69.230468 0 125.277343-56.042969 125.277343-125.273438-.550781-68.683593-56.59375-124.726562-125.277343-124.726562-68.679688 0-125.273438 56.042969-125.273438 125.273438 0 68.683593 56.042969 124.726562 125.273438 124.726562zm0 0" fill="#1c68f3"/><path d="m200.550781 94.503906v41.761719h-131.871093c5.496093 25.273437 28.574218 43.953125 56.046874 43.953125 22.527344 0 42.304688-12.636719 51.648438-31.316406h24.722656v34.613281c0 8.242187-6.59375 14.835937-15.382812 14.835937h-121.980469c-8.238281 0-15.382813-6.59375-15.382813-14.835937v-89.011719zm-39.011719 53.847656c-8.242187 11.539063-21.429687 19.230469-36.8125 19.230469-15.386718 0-29.121093-7.691406-36.816406-19.230469zm-69.230468-43.957031c-12.089844 0-21.980469 8.792969-23.628906 19.78125h13.1875c1.648437-4.394531 5.496093-7.691406 10.441406-7.691406 4.945312 0 8.789062 3.296875 10.4375 7.691406h12.636718c-1.648437-11.539062-11.535156-19.78125-23.074218-19.78125zm64.835937 0c-12.089843 0-21.980469 8.792969-23.628906 19.78125h13.1875c1.648437-4.394531 5.496094-7.691406 10.441406-7.691406 4.945313 0 8.789063 3.296875 10.4375 7.691406h13.1875c-2.199219-11.539062-12.089843-19.78125-23.625-19.78125zm28.019531-56.042969c8.242188 0 15.386719 6.59375 15.386719 14.835938v18.132812h-152.199219v-18.132812c0-8.242188 6.59375-14.835938 15.382813-14.835938zm0 0" fill="#fff" fill-rule="evenodd"/></svg>

<!-- Generator: Adobe Illustrator 26.0.1, SVG Export Plug-In . SVG Version: 6.00 Build 0)  -->
<svg xmlns="http://www.w3.org/2000/svg" xmlns:xlink="http://www.w3.org/1999/xlink" width="250px" height="250px" viewBox="0 0 250 250" version="1.1">
<g id="surface1">
<path style=" stroke:none;fill-rule:nonzero;fill:rgb(10.980392%,40.784314%,95.294118%);fill-opacity:1;" d="M 125.273438 250 C 194.503906 250 250.550781 193.957031 250.550781 124.726562 C 250 56.042969 193.957031 0 125.273438 0 C 56.59375 0 0 56.042969 0 125.273438 C 0 193.957031 56.042969 250 125.273438 250 Z M 125.273438 250 "/>
<path style=" stroke:none;fill-rule:evenodd;fill:rgb(100%,100%,100%);fill-opacity:1;" d="M 200.550781 94.503906 L 200.550781 136.265625 L 68.679688 136.265625 C 74.175781 161.539062 97.253906 180.21875 124.726562 180.21875 C 147.253906 180.21875 167.03125 167.582031 176.375 148.902344 L 201.097656 148.902344 L 201.097656 183.515625 C 201.097656 191.757812 194.503906 198.351562 185.714844 198.351562 L 63.734375 198.351562 C 55.496094 198.351562 48.351562 191.757812 48.351562 183.515625 L 48.351562 94.503906 Z M 161.539062 148.351562 C 153.296875 159.890625 140.109375 167.582031 124.726562 167.582031 C 109.339844 167.582031 95.605469 159.890625 87.910156 148.351562 Z M 92.308594 104.394531 C 80.21875 104.394531 70.328125 113.1875 68.679688 124.175781 L 81.867188 124.175781 C 83.515625 119.78125 87.363281 116.484375 92.308594 116.484375 C 97.253906 116.484375 101.097656 119.78125 102.746094 124.175781 L 115.382812 124.175781 C 113.734375 112.636719 103.847656 104.394531 92.308594 104.394531 Z M 157.144531 104.394531 C 145.054688 104.394531 135.164062 113.1875 133.515625 124.175781 L 146.703125 124.175781 C 148.351562 119.78125 152.199219 116.484375 157.144531 116.484375 C 162.089844 116.484375 165.933594 119.78125 167.582031 124.175781 L 180.769531 124.175781 C 178.570312 112.636719 168.679688 104.394531 157.144531 104.394531 Z M 185.164062 48.351562 C 193.40625 48.351562 200.550781 54.945312 200.550781 63.1875 L 200.550781 81.320312 L 48.351562 81.320312 L 48.351562 63.1875 C 48.351562 54.945312 54.945312 48.351562 63.734375 48.351562 Z M 185.164062 48.351562 "/>
</g>
</svg>
